X:1
T:Let the Song Go Round the Earth
T:Sarah Geraldine Stock, 1898
T:Let the Song Go Round the Earth
T:Public Domain
T:Public Domain
C:Sarah Geraldine Stock, 1898
Z:Public Domain
%%score ( 1 2 ) ( 3 4 )
L:1/8
M:4/4
K:C
V:1 treble 
V:2 treble 
V:3 bass 
V:4 bass 
V:1
 C2 [B,D]2 [CE]2 [EG]2 | [FA]2 [FB]2 [Ec]4 | [Ec]2 (FG) [Ad]2 [Gd]2 | [Ec]8 | %4
w: 1.~Let the song go|the earth, Je-|sus Christ * is Lord!|His|
w: 2.~Let the song go|the earth, From|the east- * ern sea,|the|
w: 3.~Let the song go|the earth, Lands|where Is- * lam’s sway|ly|
w: 4.~Let the song go|the earth, Where|the sum- * mer smiles;|the|
w: 5.~Let the song go|the earth, Je-|sus Christ * is King!|the|
 C2 [B,D]2 [CE]2 [EG]2 | [FA]2 [FB]2 [Ec]4 | [^FB]2 [FA]2 [Gd]2 [Ge]2 | (G4 F4) | %8
w: prais- es, tell His|Be His Name|a- dored; Ev- ery|clime *|
w: day- light has its|Glad, and bright,|and free; Chi- na’s|mil- *|
w: broods o’er home and|Cast their bonds|a- way; Let His|praise *|
w: notes of ho- ly|Break from dis-|tant isles; In- land|for- *|
w: stor- y of His|Let the whole|world ring; Him cre-|a- *|
 [Ee]2 [Ee]2 [Ge]2 (AB) | [Ac]2 [GB]2 [FA]4 | [FA]2 [DA]2 G2 (EF) | [Ge]4 (G2 F2) | [Ec]8 |] %13
w: ev- ery tongue Join *|grand, the glor-|ious song! * * *|||
w: join the strains, Waft *|on to In-|dia’s plains. * * *|||
w: Af- ric’s shore Rise *|swell her wide|lands o’er. * * *|||
w: dark and dim, Ice *|coasts give back|the hymn. * * *|||
w: all a- dore Ev- *|more and ev-|er- more. * * *|||
V:2
 C2 x6 | x8 | x2 c2 x4 | x8 | C2 x6 | x8 | x8 | d8 | x6 d2 | x8 | x4 G2 c2 | x4 d4 | x8 |] %13
w: round||Sound||worth,|||and|the|||||
w: round||Where||birth,|||lions|them|||||
w: round||Dark-||hearth,|||from|and|||||
w: round||Let||mirth|||ests,|bound|||||
w: round||With||worth|||tion|er-|||||
V:3
 [C,E,]2 [G,,G,]2 [C,G,]2 [C,C]2 | [F,C]2 G,2 [C,G,]4 | [A,,A,]2 [A,C]2 [F,C]2 [G,B,]2 | [C,C]8 | %4
 [C,E,]2 [G,,G,]2 [C,G,]2 [C,C]2 | [F,C]2 [D,D]2 [A,C]4 | [D,D]2 [C,D]2 [B,,D]2 [B,,C]2 | [G,B,]8 | %8
 [C,G,]2 [D,G,]2 [E,C]2 (F,G,) | (A,2 z D) [F,C]4 | [D,D]2 [F,B,]2 [E,C]2 [A,C]2 | [G,C]4 [G,B,]4 | %12
 [C,C]8 |] %13
V:4
 x8 | x2 G,2 x4 | x8 | x8 | x8 | x8 | x8 | x8 | x6 F2 | E3 E,2 x3 | x8 | x8 | x8 |] %13

